X: 750
T: Ferahfezâ Seyir
C: Rauf Yektâ
O: Turkey
F: http://compmusic.upf.edu/node/140
N: ferahfeza--seyir--semai--1--rauf_yekta
N: makam= ferahfeza
N: form= seyir
N: usul= semai = 3/4
M: 3/4
L: 1/16
K: C _B   
Q: 1/4=120
%%MIDI tuningsystem comma53
f8 g4  | a8 g4  | f8 e4  | d4 c8  | d8 e4  | f4 g4 a4  | \
w:   |   |   |   |   |   | 
g4 f4 e4  | f8 z4  | g8 a4  | a8 a4  | 
w:   |   |   |   | 
a4 _7/8b4 a4  | g8 f4  | e4 f4 g4  | f4 e4 f4  | \
w:   |   |   |   | 
e4 d4 ^c4  | d8 z4  | f12  | f4 e8  | e4 d8  | 
w:   |   |   |   |   | 
d4 c4 _1/4B4  | c4 d4 e4  | d4 c4 d4  | \
w:   |   |   | 
c8 _1/4B4  | A8 z4  | A8 _7/8B4  | c4 d8  | \
w:   |   |   |   | 
d4 c4 _7/8B4  | A4 G8  | 
w:   |   | 
E4 F4 G4  | A4 G4 F4  | E4 D4 ^C4  | D8 z4  | |


